; generated by Slic3r 1.2.9 on 2019-04-22 at 21:47:35

; external perimeters extrusion width = 0.50mm
; perimeters extrusion width = 0.72mm
; infill extrusion width = 0.72mm
; solid infill extrusion width = 0.72mm
; top infill extrusion width = 0.72mm

M107
M104 S180 ; set temperature
G28 ; home all axes
G1 Z5 F5000 ; lift nozzle

M109 S180 ; wait for temperature to be reached
G21 ; set units to millimeters
G90 ; use absolute coordinates
M82 ; use absolute distances for extrusion
G92 E0
G1 Z0.350 F7800.000
G1 E-2.00000 F2400.00000
G92 E0
G1 X70.258 Y59.753 F7800.000
G1 E2.00000 F2400.00000
G1 X71.880 Y58.900 E2.16667 F2400.000
G1 X73.000 Y58.750 E2.26940
G1 X127.000 Y58.750 E7.17959
G1 X128.790 Y59.146 E7.34626 F2400.000
G1 X130.247 Y60.258 E7.51294
G1 X131.100 Y61.880 E7.67961
G1 X131.250 Y63.000 E7.78233
G1 X131.250 Y137.000 E14.51112
G1 X130.854 Y138.790 E14.67779
G1 X129.742 Y140.247 E14.84446
G1 X128.120 Y141.100 E15.01114
G1 X127.000 Y141.250 E15.11386
G1 X73.000 Y141.250 E20.02406
G1 X71.210 Y140.854 E20.19073
G1 X69.753 Y139.742 E20.35740
G1 X68.900 Y138.120 E20.52407
G1 X68.750 Y137.000 E20.62680
G1 X68.750 Y63.000 E27.35559
G1 X69.146 Y61.210 E27.52226
G1 X70.212 Y59.813 E27.68211
G1 X70.766 Y60.187 F7800.000
G1 X70.867 Y60.069 E27.69623 F2400.000
G1 X73.000 Y59.375 E27.90017
G1 X127.000 Y59.375 E32.81037
G1 X128.644 Y59.770 E32.96414 F2400.000
G1 X129.931 Y60.867 E33.11791
G1 X130.625 Y63.000 E33.32186
G1 X130.625 Y137.000 E40.05064
G1 X130.230 Y138.644 E40.20442
G1 X129.133 Y139.931 E40.35819
G1 X127.000 Y140.625 E40.56213
G1 X73.000 Y140.625 E45.47233
G1 X71.356 Y140.230 E45.62610
G1 X70.069 Y139.133 E45.77988
G1 X69.375 Y137.000 E45.98382
G1 X69.375 Y63.000 E52.71261
G1 X69.770 Y61.356 E52.86638
G1 X70.718 Y60.244 E52.99921
G1 E50.99921 F2400.00000
G92 E0
G1 X125.862 Y134.000 F7800.000
G1 E2.00000 F2400.00000
G1 X125.613 Y134.931 E2.08766 F2400.000
G1 X124.931 Y135.613 E2.17531
G1 X124.000 Y135.862 E2.26297
G1 X123.069 Y135.613 E2.35063
G1 X122.978 Y135.522 E2.36224
G1 X122.387 Y134.931 E2.43828
G1 X122.138 Y134.000 E2.52594
G1 X122.387 Y133.069 E2.61360
G1 X123.069 Y132.387 E2.70125
G1 X124.000 Y132.138 E2.78891
G1 X124.931 Y132.387 E2.87657
G1 X125.613 Y133.069 E2.96422
G1 X125.843 Y133.928 E3.04506
G1 X126.272 Y134.287 F7800.000
G1 E1.04506 F2400.00000
G92 E0
G1 X77.862 Y134.000 F7800.000
G1 E2.00000 F2400.00000
G1 X77.613 Y134.931 E2.08766 F2400.000
G1 X76.931 Y135.613 E2.17531
G1 X76.000 Y135.862 E2.26297
G1 X75.069 Y135.613 E2.35063
G1 X74.978 Y135.522 E2.36225
G1 X74.387 Y134.931 E2.43828
G1 X74.138 Y134.000 E2.52594
G1 X74.387 Y133.069 E2.61360
G1 X75.069 Y132.387 E2.70125
G1 X76.000 Y132.138 E2.78891
G1 X76.931 Y132.387 E2.87657
G1 X77.613 Y133.069 E2.96422
G1 X77.843 Y133.928 E3.04506
G1 X78.272 Y134.287 F7800.000
G1 X77.862 Y66.000 F7800.000
G1 X77.613 Y66.931 E3.13272 F2400.000
G1 X76.931 Y67.613 E3.22037
G1 X76.000 Y67.862 E3.30803
G1 X75.069 Y67.613 E3.39569
G1 X74.387 Y66.931 E3.48335
G1 X74.138 Y66.000 E3.57101
G1 X74.387 Y65.069 E3.65867
G1 X75.069 Y64.387 E3.74632
G1 X76.000 Y64.138 E3.83398
G1 X76.931 Y64.387 E3.92164
G1 X77.613 Y65.069 E4.00929
G1 X77.843 Y65.928 E4.09013
G1 X78.272 Y66.287 F7800.000
G1 X77.403 Y63.975 F7800.000
G1 X122.597 Y63.975 E8.19967 F2400.000
G1 X121.827 Y64.745 E8.29875
G1 X121.491 Y66.000 E8.41686
G1 X121.827 Y67.255 E8.53497
G1 X122.537 Y67.964 E8.62623
G1 X122.745 Y68.173 E8.65307
G1 X124.000 Y68.509 E8.77118
G1 X125.255 Y68.173 E8.88929
G1 X126.025 Y67.403 E8.98837
G1 X126.025 Y132.597 E14.91651
G1 X125.255 Y131.827 E15.01558
G1 X124.000 Y131.491 E15.13369
G1 X122.745 Y131.827 E15.25180
G1 X121.827 Y132.745 E15.36990
G1 X121.491 Y134.000 E15.48801
G1 X121.827 Y135.255 E15.60612
G1 X122.597 Y136.025 E15.70520
G1 X77.403 Y136.025 E19.81475
G1 X78.173 Y135.255 E19.91382
G1 X78.509 Y134.000 E20.03193
G1 X78.173 Y132.745 E20.15004
G1 X77.255 Y131.827 E20.26814
G1 X76.000 Y131.491 E20.38625
G1 X74.745 Y131.827 E20.50437
G1 X73.975 Y132.597 E20.60344
G1 X73.975 Y67.403 E26.53157
G1 X74.745 Y68.173 E26.63065
G1 X76.000 Y68.509 E26.74876
G1 X77.255 Y68.173 E26.86687
G1 X78.173 Y67.255 E26.98497
G1 X78.509 Y66.000 E27.10308
G1 X78.173 Y64.745 E27.22119
G1 X77.456 Y64.028 E27.31345
G1 X122.138 Y66.000 F7800.000
G1 X122.387 Y65.069 E27.40111 F2400.000
G1 X123.069 Y64.387 E27.48876
G1 X123.877 Y64.171 E27.56480
G1 X124.000 Y64.138 E27.57642 F2400.000
G1 X124.931 Y64.387 E27.66408
G1 X125.613 Y65.069 E27.75173
G1 X125.862 Y66.000 E27.83939
G1 X125.613 Y66.931 E27.92705
G1 X124.931 Y67.613 E28.01470
G1 X124.000 Y67.862 E28.10236
G1 X123.069 Y67.613 E28.19002
G1 X122.387 Y66.931 E28.27767
G1 X122.157 Y66.072 E28.35851
G1 X121.728 Y65.713 F7800.000
G1 E26.35851 F2400.00000
G92 E0
G1 X126.650 Y63.350 F7800.000
G1 E2.00000 F2400.00000
G1 X126.650 Y136.650 E8.66514 F2400.000
G1 X73.350 Y136.650 E13.51168
G1 X73.350 Y63.350 E20.17682
G1 X126.575 Y63.350 E25.01655
G1 X126.400 Y63.783 F7800.000
G1 X124.820 Y63.845 F7800.000
G1 X125.151 Y63.889 E25.08092 F2400.000
G1 X125.277 Y63.923 E25.10602
G1 X125.843 Y64.157 E25.22407
G1 X126.077 Y64.723 E25.34211
G1 X126.111 Y64.849 E25.36721
G1 X126.155 Y65.180 E25.43158
G1 X126.155 Y65.180 F7800.000
G1 X126.260 Y66.020 E25.50860 F2400.000
G1 X126.186 Y66.585 E25.56046
G1 X125.923 Y67.041 E25.60827
G1 X124.820 Y63.845 F7800.000
G1 X123.980 Y63.740 E25.68529 F2400.000
G1 X123.415 Y63.814 E25.73715
G1 X122.959 Y64.077 E25.78497
G1 X121.490 Y64.655 F7800.000
G1 X121.189 Y64.353 E25.82392 F2400.000
G1 X120.301 Y64.353 E25.90507
G1 X121.302 Y65.355 E26.03452
G1 X121.115 Y66.056 E26.10077
G1 X119.413 Y64.353 E26.32073
G1 X118.524 Y64.353 E26.40188
G1 X121.384 Y67.212 E26.77133
G1 X122.788 Y68.616 F7800.000
G1 X125.647 Y71.475 E27.14077 F2400.000
G1 X125.647 Y70.587 E27.22192
G1 X123.944 Y68.885 E27.44188
G1 X124.645 Y68.698 E27.50813
G1 X125.647 Y69.699 E27.63759
G1 X125.647 Y68.811 E27.71873
G1 X125.345 Y68.510 E27.75768
G1 X125.647 Y72.364 F7800.000
G1 X117.636 Y64.353 E28.79277 F2400.000
G1 X116.748 Y64.353 E28.87392
G1 X125.647 Y73.252 E30.02376
G1 X125.647 Y74.140 E30.10490
G1 X115.860 Y64.353 E31.36950
G1 X114.972 Y64.353 E31.45065
G1 X125.647 Y75.028 E32.83000
G1 X125.647 Y75.916 E32.91115
G1 X114.084 Y64.353 E34.40526
G1 X113.196 Y64.353 E34.48641
G1 X125.647 Y76.804 E36.09527
G1 X125.647 Y77.692 E36.17642
G1 X112.308 Y64.353 E37.90004
G1 X111.420 Y64.353 E37.98119
G1 X125.647 Y78.580 E39.81957
G1 X125.647 Y79.468 E39.90072
G1 X110.532 Y64.353 E41.85385
G1 X109.644 Y64.353 E41.93500
G1 X125.647 Y80.356 E44.00289
G1 X125.647 Y81.244 E44.08404
G1 X108.756 Y64.353 E46.26669
G1 X107.868 Y64.353 E46.34784
G1 X125.647 Y82.132 E48.64524
G1 X125.647 Y83.020 E48.72639
G1 X106.980 Y64.353 E51.13855
G1 X106.092 Y64.353 E51.21970
G1 X125.647 Y83.908 E53.74662
G1 X125.647 Y84.796 E53.82776
G1 X105.204 Y64.353 E56.46944
G1 X104.316 Y64.353 E56.55058
G1 X125.647 Y85.684 E59.30702
G1 X125.647 Y86.572 E59.38816
G1 X103.428 Y64.353 E62.25935
G1 X102.540 Y64.353 E62.34050
G1 X125.647 Y87.460 E65.32644
G1 X125.647 Y88.348 E65.40759
G1 X101.652 Y64.353 E68.50829
G1 X100.763 Y64.353 E68.58944
G1 X125.647 Y89.237 E71.80490
G1 X125.647 Y90.125 E71.88604
G1 X99.875 Y64.353 E75.21626
G1 X98.987 Y64.353 E75.29740
G1 X125.647 Y91.013 E78.74238
G1 X125.647 Y91.901 E78.82352
G1 X98.099 Y64.353 E82.38325
G1 X97.211 Y64.353 E82.46440
G1 X125.647 Y92.789 E86.13888
G1 X125.647 Y93.677 E86.22003
G1 X96.323 Y64.353 E90.00927
G1 X95.435 Y64.353 E90.09041
G1 X125.647 Y94.565 E93.99441
G1 X125.647 Y95.453 E94.07556
G1 X94.547 Y64.353 E98.09431
G1 X93.659 Y64.353 E98.17546
G1 X125.647 Y96.341 E102.30897
G1 X125.647 Y97.229 E102.39011
G1 X92.771 Y64.353 E106.63838
G1 X91.883 Y64.353 E106.71953
G1 X125.647 Y98.117 E111.08255
G1 X125.647 Y99.005 E111.16370
G1 X90.995 Y64.353 E115.64148
G1 X90.107 Y64.353 E115.72262
G1 X125.647 Y99.893 E120.31516
G1 X125.647 Y100.781 E120.39631
G1 X89.219 Y64.353 E125.10360
G1 X88.331 Y64.353 E125.18474
G1 X125.647 Y101.669 E130.00679
G1 X125.647 Y102.557 E130.08794
G1 X87.443 Y64.353 E135.02475
G1 X86.555 Y64.353 E135.10589
G1 X125.647 Y103.445 E140.15746
G1 X125.647 Y104.333 E140.23860
G1 X85.667 Y64.353 E145.40492
G1 X84.779 Y64.353 E145.48607
G1 X125.647 Y105.221 E150.76714
G1 X125.647 Y106.109 E150.84829
G1 X83.891 Y64.353 E156.24412
G1 X83.002 Y64.353 E156.32526
G1 X125.647 Y106.998 E161.83585
G1 X125.647 Y107.886 E161.91700
G1 X82.114 Y64.353 E167.54235
G1 X81.226 Y64.353 E167.62349
G1 X125.647 Y108.774 E173.36359
G1 X125.647 Y109.662 E173.44474
G1 X80.338 Y64.353 E179.29960
G1 X79.450 Y64.353 E179.38074
G1 X125.647 Y110.550 E185.35036
G1 X125.647 Y111.438 E185.43150
G1 X78.562 Y64.353 E191.51587
G1 X78.803 Y65.482 E191.62129
G1 X125.647 Y112.326 E197.67461
G1 X125.647 Y113.214 E197.75575
G1 X78.778 Y66.345 E203.81226
G1 X78.590 Y67.046 E203.87851
G1 X125.647 Y114.102 E209.95928
G1 X125.647 Y114.990 E210.04042
G1 X78.271 Y67.614 E216.16243
G1 X77.827 Y68.058 E216.21980
G1 X125.647 Y115.878 E222.39919
G1 X125.647 Y116.766 E222.48033
G1 X77.381 Y68.500 E228.71737
G1 X76.680 Y68.688 E228.78363
G1 X125.647 Y117.654 E235.11117
G1 X125.647 Y118.542 E235.19232
G1 X75.980 Y68.876 E241.61036
G1 X74.849 Y68.633 E241.71603
G1 X125.647 Y119.430 E248.28019
G1 X125.647 Y120.318 E248.36133
G1 X74.353 Y69.025 E254.98957
G1 X74.353 Y69.913 E255.07072
G1 X125.647 Y121.206 E261.69896
G1 X125.647 Y122.094 E261.78010
G1 X74.353 Y70.801 E268.40834
G1 X74.353 Y71.689 E268.48949
G1 X125.647 Y122.982 E275.11773
G1 X125.647 Y123.870 E275.19887
G1 X74.353 Y72.577 E281.82711
G1 X74.353 Y73.465 E281.90826
G1 X125.647 Y124.759 E288.53650
G1 X125.647 Y125.647 E288.61764
G1 X74.353 Y74.354 E295.24588
G1 X74.353 Y75.242 E295.32703
G1 X125.647 Y126.535 E301.95527
G1 X125.647 Y127.423 E302.03642
G1 X74.353 Y76.130 E308.66466
G1 X74.353 Y77.018 E308.74580
G1 X125.647 Y128.311 E315.37404
G1 X125.647 Y129.199 E315.45519
G1 X74.353 Y77.906 E322.08343
G1 X74.353 Y78.794 E322.16457
G1 X125.647 Y130.087 E328.79281
G1 X125.647 Y130.975 E328.87396
G1 X74.353 Y79.682 E335.50220
G1 X74.353 Y80.570 E335.58334
G1 X125.151 Y131.367 E342.14749
G1 X124.020 Y131.124 E342.25315
G1 X74.353 Y81.458 E348.67119
G1 X74.353 Y82.346 E348.75233
G1 X123.320 Y131.312 E355.07987
G1 X122.619 Y131.500 E355.14612
G1 X74.353 Y83.234 E361.38316
G1 X74.353 Y84.122 E361.46430
G1 X122.173 Y131.942 E367.64368
G1 X121.729 Y132.386 E367.70106
G1 X74.353 Y85.010 E373.82306
G1 X74.353 Y85.898 E373.90420
G1 X121.410 Y132.955 E379.98496
G1 X121.222 Y133.655 E380.05122
G1 X74.353 Y86.786 E386.10772
G1 X74.353 Y87.674 E386.18886
G1 X121.197 Y134.518 E392.24218
G1 X121.438 Y135.647 E392.34759
G1 X74.353 Y88.562 E398.43195
G1 X74.353 Y89.450 E398.51310
G1 X120.550 Y135.647 E404.48270
G1 X119.662 Y135.647 E404.56385
G1 X74.353 Y90.338 E410.41869
G1 X74.353 Y91.226 E410.49984
G1 X118.774 Y135.647 E416.23993
G1 X117.885 Y135.647 E416.32108
G1 X74.353 Y92.115 E421.94641
G1 X74.353 Y93.003 E422.02756
G1 X116.997 Y135.647 E427.53814
G1 X116.109 Y135.647 E427.61928
G1 X74.353 Y93.891 E433.01510
G1 X74.353 Y94.779 E433.09625
G1 X115.221 Y135.647 E438.37731
G1 X114.333 Y135.647 E438.45846
G1 X74.353 Y95.667 E443.62477
G1 X74.353 Y96.555 E443.70591
G1 X113.445 Y135.647 E448.75747
G1 X112.557 Y135.647 E448.83861
G1 X74.353 Y97.443 E453.77541
G1 X74.353 Y98.331 E453.85655
G1 X111.669 Y135.647 E458.67859
G1 X110.781 Y135.647 E458.75974
G1 X74.353 Y99.219 E463.46702
G1 X74.353 Y100.107 E463.54817
G1 X109.893 Y135.647 E468.14069
G1 X109.005 Y135.647 E468.22184
G1 X74.353 Y100.995 E472.69961
G1 X74.353 Y101.883 E472.78076
G1 X108.117 Y135.647 E477.14377
G1 X107.229 Y135.647 E477.22492
G1 X74.353 Y102.771 E481.47317
G1 X74.353 Y103.659 E481.55432
G1 X106.341 Y135.647 E485.68782
G1 X105.453 Y135.647 E485.76897
G1 X74.353 Y104.547 E489.78771
G1 X74.353 Y105.435 E489.86885
G1 X104.565 Y135.647 E493.77284
G1 X103.677 Y135.647 E493.85399
G1 X74.353 Y106.323 E497.64322
G1 X74.353 Y107.211 E497.72437
G1 X102.789 Y135.647 E501.39884
G1 X101.901 Y135.647 E501.47999
G1 X74.353 Y108.099 E505.03971
G1 X74.353 Y108.987 E505.12085
G1 X101.013 Y135.647 E508.56581
G1 X100.124 Y135.647 E508.64696
G1 X74.353 Y109.876 E511.97716
G1 X74.353 Y110.764 E512.05831
G1 X99.236 Y135.647 E515.27376
G1 X98.348 Y135.647 E515.35490
G1 X74.353 Y111.652 E518.45560
G1 X74.353 Y112.540 E518.53674
G1 X97.460 Y135.647 E521.52268
G1 X96.572 Y135.647 E521.60382
G1 X74.353 Y113.428 E524.47500
G1 X74.353 Y114.316 E524.55615
G1 X95.684 Y135.647 E527.31257
G1 X94.796 Y135.647 E527.39372
G1 X74.353 Y115.204 E530.03539
G1 X74.353 Y116.092 E530.11653
G1 X93.908 Y135.647 E532.64344
G1 X93.020 Y135.647 E532.72459
G1 X74.353 Y116.980 E535.13674
G1 X74.353 Y117.868 E535.21789
G1 X92.132 Y135.647 E537.51528
G1 X91.244 Y135.647 E537.59643
G1 X74.353 Y118.756 E539.77907
G1 X74.353 Y119.644 E539.86022
G1 X90.356 Y135.647 E541.92810
G1 X89.468 Y135.647 E542.00925
G1 X74.353 Y120.532 E543.96237
G1 X74.353 Y121.420 E544.04352
G1 X88.580 Y135.647 E545.88189
G1 X87.692 Y135.647 E545.96304
G1 X74.353 Y122.308 E547.68665
G1 X74.353 Y123.196 E547.76780
G1 X86.804 Y135.647 E549.37666
G1 X85.916 Y135.647 E549.45780
G1 X74.353 Y124.084 E550.95190
G1 X74.353 Y124.972 E551.03305
G1 X85.028 Y135.647 E552.41240
G1 X84.140 Y135.647 E552.49354
G1 X74.353 Y125.860 E553.75813
G1 X74.353 Y126.748 E553.83928
G1 X83.252 Y135.647 E554.98911
G1 X82.363 Y135.647 E555.07025
G1 X74.353 Y127.637 E556.10533
G1 X74.353 Y128.525 E556.18648
G1 X77.212 Y131.383 E556.55591
G1 X76.056 Y131.115 E556.66443
G1 X74.353 Y129.413 E556.88438
G1 X74.353 Y130.301 E556.96553
G1 X75.355 Y131.302 E557.09497
G1 X74.655 Y131.490 E557.16123
G1 X74.353 Y131.189 E557.20017
G1 X78.617 Y132.788 F7800.000
G1 X81.475 Y135.647 E557.56961 F2400.000
G1 X80.587 Y135.647 E557.65076
G1 X78.885 Y133.944 E557.87071
G1 X78.698 Y134.645 E557.93696
G1 X79.699 Y135.647 E558.06641
G1 X78.811 Y135.647 E558.14756
G1 X78.510 Y135.345 E558.18650
G1 X77.041 Y135.923 F7800.000
G1 X76.585 Y136.186 E558.23431 F2400.000
G1 X76.020 Y136.260 E558.28618
G1 X75.180 Y136.155 E558.36319
G1 X75.180 Y136.155 F7800.000
G1 X74.849 Y136.111 E558.42756 F2400.000
G1 X74.723 Y136.077 E558.45266
G1 X74.157 Y135.843 E558.57071
G1 X73.923 Y135.277 E558.68876
G1 X73.889 Y135.151 E558.71386
G1 X73.845 Y134.820 E558.77823
G1 X73.845 Y134.820 F7800.000
G1 X73.740 Y133.980 E558.85525 F2400.000
G1 X73.814 Y133.415 E558.90711
G1 X74.077 Y132.959 E558.95492
G1 E556.95492 F2400.00000
G92 E0
G1 X122.959 Y135.923 F7800.000
G1 E2.00000 F2400.00000
G1 X123.415 Y136.186 E2.04781 F2400.000
G1 X123.980 Y136.260 E2.09967
G1 X124.820 Y136.155 E2.17669
G1 X124.820 Y136.155 F7800.000
G1 X125.151 Y136.111 E2.24106 F2400.000
G1 X125.277 Y136.077 E2.26617
G1 X125.843 Y135.843 E2.38421
G1 X126.077 Y135.277 E2.50225
G1 X126.111 Y135.151 E2.52736
G1 X126.155 Y134.820 E2.59173
G1 X126.155 Y134.820 F7800.000
G1 X126.260 Y133.980 E2.66875 F2400.000
G1 X126.186 Y133.415 E2.72061
G1 X125.923 Y132.959 E2.76842
G1 X74.077 Y67.041 F7800.000
G1 X73.814 Y66.585 E2.81623 F2400.000
G1 X73.740 Y66.020 E2.86809
G1 X73.845 Y65.180 E2.94511
G1 X73.845 Y65.180 F7800.000
G1 X73.889 Y64.849 E3.00948 F2400.000
G1 X73.923 Y64.723 E3.03458
G1 X74.157 Y64.157 E3.15263
G1 X74.723 Y63.923 E3.27067
G1 X74.849 Y63.889 E3.29577
G1 X75.180 Y63.845 E3.36015
G1 X75.180 Y63.845 F7800.000
G1 X76.020 Y63.740 E3.43716 F2400.000
G1 X76.585 Y63.814 E3.48902
G1 X77.041 Y64.077 E3.53684
G1 Z0.650 F7800.000
G1 E1.53684 F2400.00000
G92 E0
G1 X125.759 Y134.000 F7800.000
G1 E2.00000 F2400.00000
G1 X125.523 Y134.879 E2.04947 F1200.000
G1 X124.879 Y135.523 E2.09893
G1 X124.000 Y135.759 E2.14840
G1 X123.121 Y135.523 E2.19786
G1 X122.477 Y134.879 E2.24733
G1 X122.241 Y134.000 E2.29679
G1 X122.477 Y133.121 E2.34626
G1 X123.121 Y132.477 E2.39572
G1 X124.000 Y132.241 E2.44519
G1 X124.879 Y132.477 E2.49466
G1 X125.523 Y133.121 E2.54412
G1 X125.739 Y133.928 E2.58951
G1 X126.168 Y134.287 F7800.000
G1 X126.205 Y134.968 F7800.000
G1 X126.205 Y136.205 E2.69045 F1200.000
G1 X124.968 Y136.205 E2.79139
G1 X126.152 Y135.021 E2.92802
