; generated by Slic3r 1.2.9 on 2019-04-22 at 19:33:25

; external perimeters extrusion width = 0.50mm
; perimeters extrusion width = 0.72mm
; infill extrusion width = 0.72mm
; solid infill extrusion width = 0.72mm
; top infill extrusion width = 0.72mm

M107
M104 S180 ; set temperature
G28 ; home all axes
G1 Z5 F5000 ; lift nozzle

M109 S180 ; wait for temperature to be reached
G21 ; set units to millimeters
G90 ; use absolute coordinates
M82 ; use absolute distances for extrusion
G92 E0
G1 Z0.350 F7800.000
G1 E-2.00000 F2400.00000
G92 E0
G1 X70.258 Y59.753 F7800.000
G1 E2.00000 F2400.00000
G1 X71.880 Y58.900 E2.16667 F2400.000
G1 X73.000 Y58.750 E2.26940
G1 X127.000 Y58.750 E7.17959
G1 X128.790 Y59.146 E7.34626 F2400.000
G1 X130.247 Y60.258 E7.51294
G1 X131.100 Y61.880 E7.67961
G1 X131.250 Y63.000 E7.78233
G1 X131.250 Y137.000 E14.51112
G1 X130.854 Y138.790 E14.67779
G1 X129.742 Y140.247 E14.84446
G1 X128.120 Y141.100 E15.01114
G1 X127.000 Y141.250 E15.11386
G1 X73.000 Y141.250 E20.02406
G1 X71.210 Y140.854 E20.19073
G1 X69.753 Y139.742 E20.35740
G1 X68.900 Y138.120 E20.52407
G1 X68.750 Y137.000 E20.62680
G1 X68.750 Y63.000 E27.35559
G1 X69.146 Y61.210 E27.52226
G1 X70.212 Y59.813 E27.68211
G1 X70.766 Y60.187 F7800.000
G1 X70.867 Y60.069 E27.69623 F2400.000
G1 X73.000 Y59.375 E27.90017
G1 X127.000 Y59.375 E32.81037
G1 X128.644 Y59.770 E32.96414 F2400.000
G1 X129.931 Y60.867 E33.11791
G1 X130.625 Y63.000 E33.32186
G1 X130.625 Y137.000 E40.05064
G1 X130.230 Y138.644 E40.20442
G1 X129.133 Y139.931 E40.35819
G1 X127.000 Y140.625 E40.56213
G1 X73.000 Y140.625 E45.47233
G1 X71.356 Y140.230 E45.62610
G1 X70.069 Y139.133 E45.77988
G1 X69.375 Y137.000 E45.98382
G1 X69.375 Y63.000 E52.71261
G1 X69.770 Y61.356 E52.86638
G1 X70.718 Y60.244 E52.99921
G1 E50.99921 F2400.00000
G92 E0
G1 X113.009 Y124.000 F7800.000
G1 E2.00000 F2400.00000
G1 X112.539 Y125.755 E2.16518 F2400.000
G1 X111.255 Y127.039 E2.33036
G1 X109.500 Y127.509 E2.49553
G1 X107.745 Y127.039 E2.66071
G1 X106.461 Y125.755 E2.82589
G1 X105.991 Y124.000 E2.99107
G1 X106.461 Y122.245 E3.15624
G1 X107.745 Y120.961 E3.32142
G1 X109.204 Y120.570 E3.45873
G1 X109.500 Y120.491 E3.48660 F2400.000
G1 X111.255 Y120.961 E3.65177
G1 X112.539 Y122.245 E3.81696
G1 X112.990 Y123.928 E3.97531
G1 X112.362 Y124.000 F7800.000
G1 X111.979 Y125.431 E4.11004 F2400.000
G1 X110.931 Y126.479 E4.24477
G1 X109.500 Y126.862 E4.37949
G1 X108.069 Y126.479 E4.51422
G1 X107.021 Y125.431 E4.64895
G1 X106.638 Y124.000 E4.78368
G1 X107.021 Y122.569 E4.91840
G1 X108.069 Y121.521 E5.05313
G1 X109.366 Y121.174 E5.17521
G1 X109.500 Y121.138 E5.18786 F2400.000
G1 X110.931 Y121.521 E5.32258
G1 X111.979 Y122.569 E5.45731
G1 X112.343 Y123.928 E5.58522
G1 X112.772 Y124.287 F7800.000
G1 E3.58522 F2400.00000
G92 E0
G1 X94.015 Y123.977 F7800.000
G1 E2.00000 F2400.00000
G1 X93.539 Y125.755 E2.16734 F2400.000
G1 X92.255 Y127.039 E2.33252
G1 X90.500 Y127.509 E2.49769
G1 X88.745 Y127.039 E2.66287
G1 X87.461 Y125.755 E2.82805
G1 X86.991 Y124.000 E2.99323
G1 X87.461 Y122.245 E3.15840
G1 X88.745 Y120.961 E3.32359
G1 X90.204 Y120.570 E3.46089
G1 X90.500 Y120.491 E3.48876 F2400.000
G1 X92.255 Y120.961 E3.65394
G1 X93.536 Y122.243 E3.81875
G1 X93.995 Y123.905 E3.97556
G1 X93.368 Y123.980 F7800.000
G1 X92.979 Y125.431 E4.11221 F2400.000
G1 X91.931 Y126.479 E4.24694
G1 X90.500 Y126.862 E4.38167
G1 X89.069 Y126.479 E4.51639
G1 X88.021 Y125.431 E4.65112
G1 X87.638 Y124.000 E4.78585
G1 X88.021 Y122.569 E4.92057
G1 X89.069 Y121.521 E5.05531
G1 X90.366 Y121.174 E5.17739
G1 X90.500 Y121.138 E5.19003 F2400.000
G1 X91.931 Y121.521 E5.32476
G1 X92.978 Y122.568 E5.45935
G1 X93.348 Y123.907 E5.58571
G1 X93.778 Y124.265 F7800.000
G1 X85.777 Y105.074 F7800.000
G1 X86.159 Y106.500 E5.71997 F2400.000
G1 X85.803 Y107.830 E5.84515
G1 X84.830 Y108.803 E5.97030
G1 X83.500 Y109.159 E6.09548
G1 X82.170 Y108.803 E6.22065
G1 X81.197 Y107.830 E6.34581
G1 X80.841 Y106.500 E6.47098
G1 X81.197 Y105.170 E6.59615
G1 X82.170 Y104.197 E6.72131
G1 X83.500 Y103.841 E6.84648
G1 X84.926 Y104.223 E6.98074
G1 X85.072 Y103.984 E7.00625
G1 X84.172 Y102.990 E7.12819
G1 X82.975 Y101.376 E7.31091
G1 X81.942 Y99.652 E7.49362
G1 X81.083 Y97.836 E7.67634
G1 X80.406 Y95.944 E7.85906
G1 X79.917 Y93.995 E8.04177
G1 X79.623 Y92.007 E8.22449
G1 X79.524 Y90.000 E8.40720
G1 X79.623 Y87.993 E8.58992
G1 X79.917 Y86.005 E8.77264
G1 X80.406 Y84.056 E8.95535
G1 X81.083 Y82.164 E9.13807
G1 X81.942 Y80.348 E9.32078
G1 X82.975 Y78.624 E9.50350
G1 X84.172 Y77.010 E9.68622
G1 X85.072 Y76.016 E9.80816
G1 X84.926 Y75.777 E9.83366
G1 X83.500 Y76.159 E9.96793
G1 X82.170 Y75.803 E10.09310
G1 X81.197 Y74.830 E10.21826
G1 X80.841 Y73.500 E10.34343
G1 X81.197 Y72.170 E10.46860
G1 X82.170 Y71.197 E10.59376
G1 X83.500 Y70.841 E10.71893
G1 X84.830 Y71.197 E10.84410
G1 X85.803 Y72.170 E10.96926
G1 X86.159 Y73.500 E11.09444
G1 X85.777 Y74.926 E11.22870
G1 X86.016 Y75.072 E11.25420
G1 X87.010 Y74.172 E11.37614
G1 X88.624 Y72.975 E11.55886
G1 X90.348 Y71.942 E11.74158
G1 X92.164 Y71.083 E11.92430
G1 X94.056 Y70.406 E12.10701
G1 X96.005 Y69.917 E12.28973
G1 X97.993 Y69.623 E12.47244
G1 X99.883 Y69.530 E12.64450
G1 X102.004 Y69.622 E12.83758
G1 X103.995 Y69.917 E13.02055
G1 X105.944 Y70.406 E13.20326
G1 X107.836 Y71.083 E13.38597
G1 X109.652 Y71.942 E13.56869
G1 X111.376 Y72.975 E13.75141
G1 X112.990 Y74.172 E13.93413
G1 X113.984 Y75.072 E14.05607
G1 X114.223 Y74.926 E14.08157
G1 X113.841 Y73.500 E14.21584
G1 X114.197 Y72.170 E14.34101
G1 X115.170 Y71.197 E14.46617
G1 X116.500 Y70.841 E14.59134
G1 X117.830 Y71.197 E14.71651
G1 X118.803 Y72.170 E14.84167
G1 X119.159 Y73.500 E14.96684
G1 X118.803 Y74.830 E15.09201
G1 X117.830 Y75.803 E15.21717
G1 X116.500 Y76.159 E15.34234
G1 X115.074 Y75.777 E15.47661
G1 X114.928 Y76.016 E15.50211
G1 X115.828 Y77.010 E15.62405
G1 X117.025 Y78.624 E15.80677
G1 X118.058 Y80.348 E15.98949
G1 X118.917 Y82.164 E16.17221
G1 X119.594 Y84.056 E16.35492
G1 X120.083 Y86.005 E16.53764
G1 X120.377 Y87.993 E16.72035
G1 X120.476 Y90.000 E16.90307
G1 X120.377 Y92.007 E17.08579
G1 X120.083 Y93.995 E17.26850
G1 X119.594 Y95.944 E17.45122
G1 X118.917 Y97.836 E17.63393
G1 X118.058 Y99.652 E17.81665
G1 X117.025 Y101.376 E17.99936
G1 X115.828 Y102.990 E18.18209
G1 X114.928 Y103.984 E18.30403
G1 X115.074 Y104.223 E18.32953
G1 X116.500 Y103.841 E18.46379
G1 X117.830 Y104.197 E18.58897
G1 X118.803 Y105.170 E18.71412
G1 X119.159 Y106.500 E18.83930
G1 X118.803 Y107.830 E18.96447
G1 X117.830 Y108.803 E19.08963
G1 X116.500 Y109.159 E19.21480
G1 X115.170 Y108.803 E19.33997
G1 X114.197 Y107.830 E19.46513
G1 X113.841 Y106.500 E19.59030
G1 X114.223 Y105.074 E19.72456
G1 X113.984 Y104.928 E19.75007
G1 X112.990 Y105.828 E19.87201
G1 X111.376 Y107.025 E20.05473
G1 X109.652 Y108.058 E20.23744
G1 X107.836 Y108.917 E20.42016
G1 X105.944 Y109.594 E20.60288
G1 X103.995 Y110.083 E20.78559
G1 X102.007 Y110.377 E20.96831
G1 X100.000 Y110.476 E21.15103
G1 X97.993 Y110.377 E21.33374
G1 X96.005 Y110.083 E21.51646
G1 X94.056 Y109.594 E21.69917
G1 X92.164 Y108.917 E21.88189
G1 X90.348 Y108.058 E22.06461
G1 X88.624 Y107.025 E22.24732
G1 X87.010 Y105.828 E22.43004
G1 X86.016 Y104.928 E22.55198
G1 X85.841 Y105.035 E22.57067
G1 X86.377 Y104.411 F7800.000
G1 X85.964 Y104.036 E22.62144 F2400.000
G1 X84.655 Y102.593 E22.79858
G1 X83.495 Y101.028 E22.97571
G1 X82.493 Y99.357 E23.15285
G1 X81.661 Y97.596 E23.32998
G1 X81.004 Y95.762 E23.50711
G1 X80.531 Y93.873 E23.68424
G1 X80.245 Y91.946 E23.86138
G1 X80.150 Y90.000 E24.03851
G1 X80.245 Y88.054 E24.21564
G1 X80.531 Y86.127 E24.39278
G1 X81.004 Y84.238 E24.56991
G1 X81.661 Y82.404 E24.74704
G1 X82.493 Y80.643 E24.92418
G1 X83.495 Y78.972 E25.10131
G1 X84.655 Y77.407 E25.27845
G1 X85.964 Y75.964 E25.45558
G1 X87.407 Y74.655 E25.63271
G1 X88.972 Y73.495 E25.80985
G1 X90.643 Y72.493 E25.98698
G1 X92.404 Y71.661 E26.16412
G1 X94.238 Y71.004 E26.34125
G1 X96.127 Y70.531 E26.51838
G1 X98.054 Y70.245 E26.69551
G1 X99.885 Y70.155 E26.86215 F2400.000
G1 X101.945 Y70.245 E27.04964
G1 X103.873 Y70.531 E27.22687
G1 X105.762 Y71.004 E27.40400
G1 X107.596 Y71.661 E27.58113
G1 X109.357 Y72.493 E27.75827
G1 X111.028 Y73.495 E27.93540
G1 X112.593 Y74.655 E28.11254
G1 X114.036 Y75.964 E28.28967
G1 X115.345 Y77.407 E28.46680
G1 X116.505 Y78.972 E28.64394
G1 X117.507 Y80.643 E28.82107
G1 X118.339 Y82.404 E28.99820
G1 X118.996 Y84.238 E29.17533
G1 X119.469 Y86.127 E29.35247
G1 X119.755 Y88.054 E29.52960
G1 X119.850 Y90.000 E29.70673
G1 X119.755 Y91.946 E29.88387
G1 X119.469 Y93.873 E30.06100
G1 X118.996 Y95.762 E30.23813
G1 X118.339 Y97.596 E30.41527
G1 X117.507 Y99.357 E30.59240
G1 X116.505 Y101.028 E30.76953
G1 X115.345 Y102.593 E30.94667
G1 X114.036 Y104.036 E31.12380
G1 X112.593 Y105.345 E31.30093
G1 X111.028 Y106.505 E31.47807
G1 X109.357 Y107.507 E31.65520
G1 X107.596 Y108.339 E31.83234
G1 X105.762 Y108.996 E32.00947
G1 X103.873 Y109.469 E32.18660
G1 X101.946 Y109.755 E32.36374
G1 X100.000 Y109.850 E32.54087
G1 X98.054 Y109.755 E32.71800
G1 X96.127 Y109.469 E32.89514
G1 X94.238 Y108.996 E33.07227
G1 X92.404 Y108.339 E33.24940
G1 X90.643 Y107.507 E33.42654
G1 X88.972 Y106.505 E33.60367
G1 X87.407 Y105.345 E33.78081
G1 X86.433 Y104.462 E33.90034
G1 X85.901 Y104.564 F7800.000
G1 E31.90034 F2400.00000
G92 E0
G1 X83.500 Y75.512 F7800.000
G1 E2.00000 F2400.00000
G1 X82.494 Y75.243 E2.09472 F2400.000
G1 X81.757 Y74.506 E2.18943
G1 X81.488 Y73.500 E2.28415
G1 X81.757 Y72.494 E2.37887
G1 X82.494 Y71.757 E2.47358
G1 X83.381 Y71.520 E2.55706
G1 X83.500 Y71.488 E2.56830 F2400.000
G1 X84.506 Y71.757 E2.66302
G1 X85.243 Y72.494 E2.75773
G1 X85.512 Y73.500 E2.85245
G1 X85.243 Y74.506 E2.94717
G1 X84.506 Y75.243 E3.04189
G1 X83.572 Y75.493 E3.12979
G1 X83.213 Y75.922 F7800.000
G1 E1.12979 F2400.00000
G92 E0
G1 X114.488 Y73.500 F7800.000
G1 E2.00000 F2400.00000
G1 X114.757 Y72.494 E2.09472 F2400.000
G1 X115.494 Y71.757 E2.18943
G1 X116.381 Y71.520 E2.27290
G1 X116.500 Y71.488 E2.28415 F2400.000
G1 X117.506 Y71.757 E2.37887
G1 X118.243 Y72.494 E2.47358
G1 X118.512 Y73.500 E2.56830
G1 X118.243 Y74.506 E2.66302
G1 X117.506 Y75.243 E2.75773
G1 X116.500 Y75.512 E2.85245
G1 X115.494 Y75.243 E2.94717
G1 X114.757 Y74.506 E3.04189
G1 X114.507 Y73.572 E3.12979
G1 X114.078 Y73.213 F7800.000
G1 E1.12979 F2400.00000
G92 E0
G1 X116.500 Y104.488 F7800.000
G1 E2.00000 F2400.00000
G1 X117.506 Y104.757 E2.09472 F2400.000
G1 X118.243 Y105.494 E2.18943
G1 X118.512 Y106.500 E2.28415
G1 X118.243 Y107.506 E2.37887
G1 X117.506 Y108.243 E2.47358
G1 X116.500 Y108.512 E2.56830
G1 X115.494 Y108.243 E2.66302
G1 X114.880 Y107.629 E2.74195
G1 X114.757 Y107.506 E2.75774
G1 X114.488 Y106.500 E2.85245
G1 X114.757 Y105.494 E2.94718
G1 X115.494 Y104.757 E3.04189
G1 X116.381 Y104.520 E3.12536
G1 X116.428 Y104.507 E3.12979 F2400.000
G1 X116.787 Y104.078 F7800.000
G1 E1.12979 F2400.00000
G92 E0
G1 X85.512 Y106.500 F7800.000
G1 E2.00000 F2400.00000
G1 X85.243 Y107.506 E2.09472 F2400.000
G1 X84.506 Y108.243 E2.18943
G1 X83.500 Y108.512 E2.28415
G1 X82.494 Y108.243 E2.37887
G1 X81.757 Y107.506 E2.47358
G1 X81.488 Y106.500 E2.56830
G1 X81.757 Y105.494 E2.66302
G1 X82.494 Y104.757 E2.75773
G1 X83.381 Y104.520 E2.84121
G1 X83.500 Y104.488 E2.85245 F2400.000
G1 X84.506 Y104.757 E2.94717
G1 X85.243 Y105.494 E3.04189
G1 X85.493 Y106.428 E3.12979
G1 X85.922 Y106.787 F7800.000
G1 X73.975 Y136.025 F7800.000
G1 X73.975 Y63.975 E9.68128 F2400.000
G1 X126.025 Y63.975 E14.41419
G1 X126.025 Y136.025 E20.96568
G1 X74.050 Y136.025 E25.69177
G1 X73.350 Y136.650 F7800.000
G1 X73.350 Y63.350 E32.35691 F2400.000
G1 X126.650 Y63.350 E37.20345
G1 X126.650 Y136.650 E43.86859
G1 X73.425 Y136.650 E48.70832
G1 X73.600 Y136.217 F7800.000
G1 E46.70832 F2400.00000
G92 E0
G1 X85.493 Y105.280 F7800.000
G1 E2.00000 F2400.00000
G1 X85.307 Y104.958 E2.03382 F2400.000
G1 X85.269 Y104.731 E2.05475
G1 X85.742 Y104.258 E2.11560
G1 X85.639 Y104.792 F7800.000
G1 X85.042 Y104.693 E2.17061 F2400.000
G1 X84.720 Y104.507 E2.20443
G1 E0.20443 F2400.00000
G92 E0
G1 X85.742 Y75.742 F7800.000
G1 E2.00000 F2400.00000
G1 X85.269 Y75.269 E2.06085 F2400.000
G1 X85.307 Y75.042 E2.08178
G1 X85.493 Y74.720 E2.11560
G1 X85.639 Y75.208 F7800.000
G1 X85.042 Y75.307 E2.17061 F2400.000
G1 X84.720 Y75.493 E2.20443
G1 E0.20443 F2400.00000
G92 E0
G1 X114.258 Y75.742 F7800.000
G1 E2.00000 F2400.00000
G1 X114.731 Y75.269 E2.06086 F2400.000
G1 X114.958 Y75.307 E2.08178
G1 X115.280 Y75.493 E2.11560
G1 X114.792 Y75.639 F7800.000
G1 X114.693 Y75.042 E2.17061 F2400.000
G1 X114.507 Y74.720 E2.20443
G1 X113.458 Y73.683 F7800.000
G1 X104.128 Y64.353 E3.40435 F2400.000
G1 X107.699 Y70.576 F7800.000
G1 X101.477 Y64.353 E4.20465 F2400.000
G1 X100.593 Y64.353 E4.28503
G1 X106.323 Y70.083 E5.02200
G1 X105.129 Y69.774 E5.13411
G1 X99.709 Y64.353 E5.83129
G1 X98.825 Y64.353 E5.91168
G1 X103.983 Y69.512 E6.57513
G1 X102.945 Y69.358 E6.67055
G1 X97.941 Y64.353 E7.31421
G1 X97.057 Y64.353 E7.39459
G1 X101.938 Y69.234 E8.02237
G1 X101.014 Y69.194 E8.10649
G1 X96.173 Y64.353 E8.72908
G1 X95.289 Y64.353 E8.80947
G1 X100.090 Y69.154 E9.42688
G1 X99.241 Y69.189 E9.50417
G1 X94.405 Y64.353 E10.12605
G1 X93.522 Y64.353 E10.20643
G1 X98.398 Y69.230 E10.83363
G1 X97.600 Y69.316 E10.90659
G1 X92.638 Y64.353 E11.54489
G1 X91.754 Y64.353 E11.62527
G1 X96.831 Y69.430 E12.27826
G1 X96.061 Y69.545 E12.34902
G1 X90.870 Y64.353 E13.01669
G1 X89.986 Y64.353 E13.09708
G1 X95.352 Y69.720 E13.78728
G1 X94.646 Y69.897 E13.85354
G1 X89.102 Y64.353 E14.56652
G1 X88.218 Y64.353 E14.64690
G1 X93.947 Y70.082 E15.38368
G1 X93.296 Y70.315 E15.44655
G1 X87.334 Y64.353 E16.21328
G1 X86.451 Y64.353 E16.29367
G1 X92.645 Y70.548 E17.09035
G1 X92.002 Y70.789 E17.15278
G1 X85.567 Y64.353 E17.98049
G1 X84.683 Y64.353 E18.06088
G1 X91.402 Y71.073 E18.92510
G1 X90.802 Y71.357 E18.98547
G1 X83.799 Y64.353 E19.88619
G1 X82.915 Y64.353 E19.96657
G1 X90.205 Y71.643 E20.90417
G1 X89.652 Y71.975 E20.96277
G1 X82.031 Y64.353 E21.94298
G1 X81.147 Y64.353 E22.02336
G1 X89.100 Y72.306 E23.04617
G1 X88.547 Y72.637 E23.10477
G1 X80.263 Y64.353 E24.17018
G1 X79.379 Y64.353 E24.25056
G1 X88.033 Y73.007 E25.36360
G1 X86.530 Y73.272 F7800.000
G1 X87.018 Y73.760 E25.42637 F2400.000
G1 X87.526 Y73.384 E25.48383
G1 X86.207 Y72.065 E25.65349
G1 X84.935 Y70.793 F7800.000
G1 X78.496 Y64.353 E26.48175 F2400.000
G1 X77.612 Y64.353 E26.56213
G1 X83.728 Y70.470 E27.34878
G1 X82.991 Y70.616 E27.41715
G1 X76.728 Y64.353 E28.22264
G1 X75.844 Y64.353 E28.30302
G1 X82.293 Y70.803 E29.13254
G1 X81.758 Y71.152 E29.19063
G1 X74.960 Y64.353 E30.06498
G1 X74.353 Y64.631 E30.12564
G1 X81.316 Y71.593 E31.02115
G1 X80.874 Y72.035 E31.07800
G1 X74.353 Y65.515 E31.91667
G1 X74.353 Y66.399 E31.99706
G1 X80.686 Y72.731 E32.81150
G1 X80.499 Y73.428 E32.87713
G1 X74.353 Y67.282 E33.66754
G1 X74.353 Y68.166 E33.74792
G1 X80.673 Y74.486 E34.56068
G1 X83.900 Y76.829 F7800.000
G1 X83.572 Y76.501 E34.60290 F2400.000
G1 X82.514 Y76.327 E34.70038
G1 X83.524 Y77.337 E34.83022
G1 X83.148 Y77.844 E34.88768
G1 X74.353 Y69.050 E36.01875
G1 X74.353 Y69.934 E36.09913
G1 X82.771 Y78.352 E37.18179
G1 X82.429 Y78.894 E37.24007
G1 X74.353 Y70.818 E38.27875
G1 X74.353 Y71.702 E38.35913
G1 X82.098 Y79.446 E39.35521
G1 X81.767 Y79.999 E39.41380
G1 X74.353 Y72.586 E40.36727
G1 X74.353 Y73.470 E40.44766
G1 X81.462 Y80.578 E41.36198
G1 X81.179 Y81.179 E41.42235
G1 X74.353 Y74.354 E42.30016
G1 X74.353 Y75.237 E42.38055
G1 X80.895 Y81.779 E43.22186
G1 X80.634 Y82.402 E43.28332
G1 X74.353 Y76.121 E44.09116
G1 X74.353 Y77.005 E44.17154
G1 X80.402 Y83.053 E44.94943
G1 X80.169 Y83.704 E45.01231
G1 X74.353 Y77.889 E45.76024
G1 X74.353 Y78.773 E45.84062
G1 X79.963 Y84.382 E46.56208
G1 X79.786 Y85.089 E46.62834
G1 X74.353 Y79.657 E47.32702
G1 X74.353 Y80.541 E47.40741
G1 X79.609 Y85.796 E48.08332
G1 X79.473 Y86.544 E48.15247
G1 X74.353 Y81.425 E48.81092
G1 X74.353 Y82.308 E48.89131
G1 X79.359 Y87.314 E49.53507
G1 X79.245 Y88.084 E49.60590
G1 X74.353 Y83.192 E50.23508
G1 X74.353 Y84.076 E50.31546
G1 X79.204 Y88.927 E50.93932
G1 X79.163 Y89.769 E51.01603
G1 X74.353 Y84.960 E51.63457
G1 X74.353 Y85.844 E51.71495
